X:445
T: Barraduff
S: "Johnny O'Leary of Sliabh Luachra" (#17, gan ainm)
Z: B.Black
L: 1/8
M: 4/4
R: hornpipe
K: D
dB|(3BAB FA de f2|(3BAB FA defd|e2-ed c2 (3BcB|\
A2 FA B2 A2|
D2 FA de f2|D2 FA dcdf|gz b2 abaf|1 e2 d2 d2 :|2\
e2 d2 defg ||
a2 a2 fedf|a2 a2 f2 df|g2 g2 ecea|g2 g2 e2 fg|
a2 a2 fedf|a2 a2 f2 (3def|g2 b2 abaf|1 e2 d2 d2 (3efg :|2\
e2 d2 d2 ||
